X:759
T:Castle In The Glen 
C:Joe Buchanan's Scottish Tome - Page 526.1
I:526 1
Z:Carl Allison
R:Slow Air
L:1/4
M:4/4
K:Eb
"Eb"G F E | "Eb"G F E | "Ab"c2 c | "Eb"B2 E | "Eb"G2 G | "Bb7"A G F | "Eb"E3- | "Eb"E3 |
"Eb"e2 e | "Eb"e f e | "Cm"e3 | "Cm"G2 A | "Eb"B> c d | "Ab"e d c | "Eb"B3- | "Eb"B3 |
"Eb"G F E | "Eb"G2 B | "Cm"e3 | "Cm"e2 G | "Eb"B> c d | "Ab"e d c | "Eb"B3- | "Bb7"B3 |
"Eb"G F E | "Cm"G F E | "Ab"c2 c | "Eb"B2 E | "Cm"G2 G | "Bb7"A G F | "Eb"E3- | "Eb"E3 :|

